pieces/companion/pb.svg

<svg viewBox="0 0 64 64" xmlns="http://www.w3.org/2000/svg"><path d="m49.246 74.14h-34.543c-.09595-3.013 1.0747-5.2007 3.5119-6.5632 1.8999-1.0555 4.4714-1.5736 7.7147-1.5544l.17272-2.4468c-1.1898-.65248-1.7848-1.9479-1.7847-3.8861-.000015-2.4372 1.0363-5.5653 3.1089-9.3843v-3.771h-10.392c-.15353-1.1322.14393-2.418.89237-3.8573 1.8931-4.1115 6.8385-4.1826 9.8736-6.736-.40305-.61408-.65251-1.0267-.74844-1.2378-.24948-.51812-.38381-.9691-.403-1.353-.0384-1.4201.47972-2.6195 1.5545-3.5983 1.0747-.99788 2.3316-1.4968 3.771-1.4969 1.4201.000037 2.6675.499 3.7422 1.4969 1.0938.97876 1.6216 2.1782 1.5832 3.5983-.0384 1.2858-.42225 2.1494-1.1514 2.5908.19186.78685 1.3721 1.4681 3.5407 2.0438 4.8744 1.305 7.3116 3.8574 7.3117 7.6571-.00004.38381-.0288.6813-.0864.89237h-10.392v3.771c2.0918 3.819 3.1376 6.9471 3.1377 9.3843-.00003 1.9383-.60454 3.2336-1.8135 3.8861l.17272 2.4468c4.4138-.0384 7.5707.93074 9.4706 2.9074 1.209 1.2666 1.8135 2.773 1.8135 4.5194-.00004.28786-.0192.51814-.0576.69087" transform="translate(0 -16)"/><path d="m14.969492 56.893923c0-.56988.318705-1.671057.712154-2.460608 1.223438-2.455118 3.850436-3.771916 8.440388-4.230788l1.966102-.196555v-1.295206c0-.874449-.145791-1.416111-.448788-1.667392-1.784648-1.480044-1.497205-5.44678.742042-10.240235.933867-1.999088 1.062678-2.516812 1.062678-4.271186v-1.99636h-5.152543-5.152542l.000214-.881356c.000325-1.290407 1.385287-4.002857 2.579017-5.050966.570315-.500743 2.446905-1.572948 4.1702-2.382677 1.723296-.809729 3.34176-1.660921 3.596588-1.891537.436211-.394766.43276-.469426-.05898-1.275874-.68696-1.126612-.683084-3.033558.0085-4.167753 1.1713-1.921011 3.972021-2.954157 6.10237-2.251078 2.792413.921579 4.48155 4.145226 3.269773 6.240224-.774535 1.339065-.783557 1.433523-.183333 1.919555.325444.263529 1.732281.859123 3.126304 1.323542 3.056489 1.01827 4.755632 2.049613 5.83769 3.54335.810007 1.118181 1.559767 3.749472 1.277771 4.484342-.123024.320598-1.070652.390228-5.310798.390228h-5.161053v1.905075c0 1.624821.135022 2.173364.917831 3.728814 2.018673 4.01112 2.740035 8.341121 1.664751 9.992725-.279361.429091-.677933.906626-.885714 1.061186-.250806.186565-.348805.687891-.291564 1.491525l.08622 1.210506 2.461337.325152c3.425982.452586 5.361288 1.23436 6.923826 2.796895 1.274159 1.274159 1.864415 2.580166 1.867561 4.13219l.0015.745763h-17.084746-17.084745v-1.031501z" fill="#333" stroke="#000" stroke-width=".987802"/></svg>

<svg width="64" height="64" viewBox="0 0 64 64" fill="none" xmlns="http://www.w3.org/2000/svg">
<path d="M49.246 58.14H14.703C14.607 55.127 15.7777 52.9393 18.2149 51.5768C20.1148 50.5213 22.6863 50.0032 25.9296 50.0224L26.1023 47.5756C24.9125 46.9231 24.3175 45.6277 24.3176 43.6895C24.3176 41.2523 25.3539 38.1242 27.4265 34.3052V30.5342H17.0345C16.881 29.402 17.1784 28.1162 17.9269 26.6769C19.82 22.5654 24.7654 22.4943 27.8005 19.9409C27.3974 19.3268 27.148 18.9142 27.052 18.7031C26.8026 18.185 26.6682 17.734 26.649 17.3501C26.6106 15.93 27.1288 14.7306 28.2035 13.7518C29.2782 12.7539 30.5352 12.255 31.9746 12.2549C33.3947 12.2549 34.6421 12.7539 35.7168 13.7518C36.8106 14.7306 37.3383 15.93 37.2999 17.3501C37.2615 18.6359 36.8777 19.4995 36.1485 19.9409C36.3404 20.7277 37.5207 21.409 39.6893 21.9847C44.5637 23.2897 47.0008 25.8421 47.0009 29.6418C47.0009 30.0256 46.9722 30.3231 46.9146 30.5342H36.5225V34.3052C38.6143 38.1242 39.6602 41.2523 39.6603 43.6895C39.6602 45.6278 39.0557 46.9231 37.8467 47.5756L38.0195 50.0224C42.4333 49.984 45.5902 50.9531 47.4901 52.9298C48.6991 54.1964 49.3036 55.7028 49.3036 57.4492C49.3035 57.737 49.2844 57.9673 49.246 58.14" fill="black"/>
<path d="M14.9695 56.8939C14.9695 56.324 15.2882 55.2229 15.6816 54.4333C16.9051 51.9782 19.5321 50.6614 24.122 50.2025L26.0881 50.006V48.7108C26.0881 47.8363 25.9423 47.2947 25.6393 47.0434C23.8547 45.5633 24.1421 41.5966 26.3814 36.8031C27.3153 34.804 27.4441 34.2863 27.4441 32.5319V30.5356H22.2915H17.139L17.1392 29.6542C17.1395 28.3638 18.5245 25.6514 19.7182 24.6033C20.2885 24.1025 22.1651 23.0303 23.8884 22.2206C25.6117 21.4109 27.2302 20.5597 27.485 20.3291C27.9212 19.9343 27.9178 19.8596 27.426 19.0532C26.7391 17.9266 26.7429 16.0196 27.4345 14.8854C28.6058 12.9644 31.4065 11.9313 33.5369 12.6343C36.3293 13.5559 38.0184 16.7796 36.8067 18.8746C36.0321 20.2136 36.0231 20.3081 36.6233 20.7941C36.9488 21.0577 38.3556 21.6533 39.7496 22.1177C42.8061 23.1359 44.5053 24.1673 45.5873 25.661C46.3973 26.7792 47.1471 29.4105 46.8651 30.1454C46.7421 30.466 45.7944 30.5356 41.5543 30.5356H36.3932V32.4407C36.3932 34.0655 36.5283 34.614 37.3111 36.1695C39.3297 40.1806 40.0511 44.5106 38.9758 46.1622C38.6965 46.5913 38.2979 47.0688 38.0901 47.2234C37.8393 47.41 37.7413 47.9113 37.7985 48.7149L37.8848 49.9254L40.3461 50.2506C43.7721 50.7032 45.7074 51.4849 47.2699 53.0475C48.5441 54.3216 49.1343 55.6276 49.1375 57.1797L49.139 57.9254H32.0542H14.9695V56.8939H14.9695Z" fill="#333333" stroke="black" stroke-width="0.987802"/>
</svg>
